svgs/adaway.svg

<svg width="24" height="24" viewBox="0 0 24 24" fill="none" xmlns="http://www.w3.org/2000/svg">
<path fill-rule="evenodd" clip-rule="evenodd" d="M3.47327 3.27929C2.28726 2.97813 1.72377 2.83505 2.13213 3.2965L2.16064 3.30847C2.84387 4.61409 3.375 4.76464 4.42023 5.06092C4.89276 5.19486 5.47037 5.35859 6.21461 5.67229C7.93512 5.92286 3.66306 6.69063 3.33521 6.31543C3.62726 7.57385 4.78943 7.61615 5.74244 7.65083C5.98021 7.65948 6.20495 7.66766 6.39992 7.69413C7.25391 7.86239 6.9116 8.07327 6.44033 8.36358C5.80876 8.75265 4.9456 9.28438 6.41987 10.0474C6.46692 10.1929 6.49579 10.3671 6.52717 10.5566C6.67742 11.4634 6.88529 12.718 9.42044 12.8276C10.1162 12.8575 10.8401 12.7718 11.4776 12.6963C12.5407 12.5704 13.3639 12.4729 13.4174 12.9867C13.4621 13.405 12.8573 13.7481 11.6004 14.4609C10.7739 14.9297 9.66549 15.5584 8.27438 16.4735C7.31278 17.2105 8.06046 17.5102 8.6929 17.7636C9.03547 17.9009 9.34423 18.0246 9.32921 18.197C9.85845 19.0237 10.2882 18.8299 10.6707 18.6573C10.9765 18.5194 11.2521 18.3951 11.5244 18.8162C11.8437 19.2842 12.5051 19.9869 13.0838 19.9736L14.0603 20C14.0603 18.7432 14.4765 17.3671 15.2177 16.7095C15.8663 16.0427 16.5179 15.5829 17.1163 15.1606C18.6642 14.0684 19.856 13.2274 19.7193 9.704C19.7378 7.9553 21.0521 5.89771 22 5.84998C21.7366 5.73702 21.485 5.50621 21.2101 5.25406C21.1979 5.24284 21.1856 5.23157 21.1732 5.22027C20.9081 4.97633 19.8519 4.13042 19.1306 4.22853C18.5911 4.33834 18.0907 4.96884 17.6363 5.54147C17.3007 5.96438 16.9901 6.35573 16.7073 6.48245C15.2769 7.12269 14.883 6.76346 13.9421 5.9054C13.8075 5.78266 13.6617 5.64971 13.5001 5.50802C12.9242 4.94721 12.1502 4.39423 10.0975 4.27756C7.37576 4.27022 4.94514 3.65303 3.47327 3.27929ZM19.8918 5.7916C19.8918 5.97758 19.7297 6.12822 19.5297 6.12822C19.3297 6.12822 19.1676 5.97758 19.1676 5.7916C19.1676 5.60562 19.3297 5.45481 19.5297 5.45481C19.7297 5.45481 19.8918 5.60562 19.8918 5.7916Z" fill="#FFF1C0"/>
</svg>

<svg xmlns="http://www.w3.org/2000/svg" viewBox="0 0 24 24"><path d="M3.473 3.28c-1.186-.302-1.75-.445-1.34.017l.028.011c.683 1.306 1.214 1.457 2.26 1.753.472.134 1.05.298 1.794.611 1.72.25-2.552 1.019-2.88.643.292 1.259 1.455 1.301 2.408 1.336.237.008.462.017.657.043.854.168.512.38.04.67-.631.389-1.494.92-.02 1.683.047.146.076.32.107.51.15.906.358 2.16 2.894 2.27.695.03 1.42-.055 2.057-.13 1.063-.127 1.886-.224 1.94.29.044.418-.56.761-1.817 1.474a55.212 55.212 0 0 0-3.326 2.012c-.962.737-.214 1.037.418 1.29.343.138.651.262.636.434.53.827.96.633 1.342.46.306-.138.581-.262.854.16.319.467.98 1.17 1.559 1.157l.976.026c0-1.257.417-2.633 1.158-3.29.648-.667 1.3-1.127 1.898-1.55 1.548-1.092 2.74-1.933 2.603-5.456.019-1.749 1.333-3.806 2.281-3.854-.263-.113-.515-.344-.79-.596a10.97 10.97 0 0 0-.037-.034c-.265-.244-1.32-1.09-2.042-.992-.54.11-1.04.74-1.495 1.313-.335.423-.646.815-.929.941-1.43.64-1.824.281-2.765-.577-.134-.122-.28-.255-.442-.397-.576-.56-1.35-1.114-3.402-1.23-2.722-.008-5.153-.625-6.625-.999zm16.42 2.512c0 .186-.163.336-.363.336s-.362-.15-.362-.336.162-.337.362-.337.362.15.362.337z"/></svg>
